outputs/icons/charts/chart_filled_round.svg

<svg xmlns="http://www.w3.org/2000/svg" width="1200" height="1200" fill="none"><path fill="#000" d="M950 150H250c-55 0-100 45-100 100v700c0 55 45 100 100 100h700c55 0 100-45 100-100V250c0-55-45-100-100-100M450 837.5c0 6.905-5.596 12.5-12.5 12.5h-75c-6.904 0-12.5-5.595-12.5-12.5V550c0-27.615 22.386-50 50-50s50 22.385 50 50zm200 0c0 6.905-5.595 12.5-12.5 12.5h-75c-6.905 0-12.5-5.595-12.5-12.5V400c0-27.614 22.385-50 50-50s50 22.386 50 50zm200 0c0 6.905-5.595 12.5-12.5 12.5h-75c-6.905 0-12.5-5.595-12.5-12.5V700c0-27.615 22.385-50 50-50s50 22.385 50 50z"/></svg>

<svg width="1200" height="1200" viewBox="0 0 1200 1200" fill="none" xmlns="http://www.w3.org/2000/svg"><path d="M950 150H250C195 150 150 195 150 250V950C150 1005 195 1050 250 1050H950C1005 1050 1050 1005 1050 950V250C1050 195 1005 150 950 150ZM450 837.5C450 844.405 444.404 850 437.5 850H362.5C355.596 850 350 844.405 350 837.5V550C350 522.385 372.386 500 400 500C427.614 500 450 522.385 450 550V837.5ZM650 837.5C650 844.405 644.405 850 637.5 850H562.5C555.595 850 550 844.405 550 837.5V400C550 372.386 572.385 350 600 350C627.615 350 650 372.386 650 400V837.5ZM850 837.5C850 844.405 844.405 850 837.5 850H762.5C755.595 850 750 844.405 750 837.5V700C750 672.385 772.385 650 800 650C827.615 650 850 672.385 850 700V837.5Z" fill="#1D1E23"/></svg>
